X:8
T:Le pain dans nos mains
M:C
L:1/8
K:Cm
"Dom"G2 GE "Fam"F3 G|"Lab"E2 "Sib"D2 "Dom"C4|G2 GE "Fam"F3 G|"Lab"E2 "Sib"F2 "Mib"G4|\
"Dom"c2 cc "Mib"B2 AG|"Fam"A2 c2 "Dom"G4|"Fam"F2 GF "Dom"E2 DC|
"Fam"E2 F2 "Sol4/3"D4-|D2:zC||"Dom"C3 C EE "Sib"FG|"Mib"G6 z2|"Mib"E2 E2 "Sib"F2 FB|\
"Mib"G2 G4 zE|"Dom"E3 E "Sib"FF FG|
"Mib"G6 z2|"Mib"E2 E2 "Sib"F2 FB|"Mib"G2 G4 zG|"Lab"c2 cc "Solm"BB- BB/c/|\
"Dom"G6 z2|"Lab"c4 "Solm"B3 c|"Dom"c4 c4||
